svgs/duotone/headset.svg

<svg xmlns="http://www.w3.org/2000/svg" viewBox="0 0 512 512"><!-- Font Awesome Pro 6.0.0-alpha2 by @fontawesome - https://fontawesome.com License - https://fontawesome.com/license (Commercial License) --><defs><style>.fa-secondary{opacity:.4}</style></defs><path d="M256 0C112.906 0 4.562 119.125 0 256V296C0 309.255 10.745 320 24 320H24C37.255 320 48 309.255 48 296V256C48 141.328 141.344 48.203 256 48.188C370.656 48.203 464 141.328 464 256V400C464 422.091 446.091 440 424 440H313.344C305.029 425.711 289.723 416 272 416L241.778 416C218.566 416 197.287 431.696 192.914 454.492C187.028 485.171 210.381 512 240 512H272C289.723 512 305.029 502.289 313.344 488H424C472.601 488 512 448.601 512 400V256C507.438 119.125 399.094 0 256 0Z" class="fa-secondary"/><path d="M160 192H144C108.656 192 80 220.703 80 256.125V303.875C80 339.297 108.656 368 144 368H160C177.656 368 192 353.641 192 335.938V224.062C192 206.344 177.656 192 160 192ZM368 192H352C334.344 192 320 206.359 320 224.062V335.938C320 353.656 334.344 368 352 368H368C403.344 368 432 339.297 432 303.875V256.125C432 220.703 403.344 192 368 192Z" class="fa-primary"/></svg>

<svg xmlns="http://www.w3.org/2000/svg" viewBox="0 0 512 512"><!--! Font Awesome Pro 6.3.0 by @fontawesome - https://fontawesome.com License - https://fontawesome.com/license (Commercial License) Copyright 2023 Fonticons, Inc. --><defs><style>.fa-secondary{opacity:.4}</style></defs><path class="fa-primary" d="M159.1 192L144 192c-35.34 0-64 28.66-64 64.08v47.79C80 339.3 108.7 368 144 368H160c17.66 0 32-14.36 32-32.06L191.1 224C191.1 206.3 177.6 192 159.1 192zM368 192l-16 0c-17.66 0-32 14.34-32 32.04L320 335.9C320 353.7 334.3 368 352 368h16c35.34 0 64-28.7 64-64.13V256.1C432 220.7 403.3 192 368 192z"/><path class="fa-secondary" d="M256 0C112.9 0 4.583 119.1 .0208 256L0 296C0 309.3 10.75 320 23.1 320S48 309.3 48 296V256c0-114.7 93.34-207.8 208-207.8C370.7 48.2 464 141.3 464 256v144c0 22.09-17.91 40-40 40h-110.7C305 425.7 289.7 416 272 416H241.8c-23.21 0-44.5 15.69-48.87 38.49C187 485.2 210.4 512 239.1 512H272c17.72 0 33.03-9.711 41.34-24H424c48.6 0 88-39.4 88-88V256C507.4 119.1 399.1 0 256 0z"/></svg>
